Catalina-light/actions/16/view-restore.svg

<svg xmlns="http://www.w3.org/2000/svg" width="16" height="16" viewBox="0 0 16 16">
 <defs>
  <style id="current-color-scheme" type="text/css">
   .ColorScheme-Text { color:#5c616c; } .ColorScheme-Highlight { color:#5294e2; }
  </style>
 </defs>
 <path style="fill:currentColor" class="ColorScheme-Text" d="M 4 2.0039062 L 4 5.0039062 L 1 5.0039062 L 1 7.0039062 L 5 7.0039062 C 6 7.0039062 6 6.0039062 6 6.0039062 L 6 2.0039062 L 4 2.0039062 z M 10 2.0039062 L 10 6.0039062 C 10 6.0039062 10 7.0039062 11 7.0039062 L 15 7.0039062 L 15 5.0039062 L 12 5.0039062 L 12 2.0039062 L 10 2.0039062 z M 1 9.0039062 L 1 11.003906 L 4 11.003906 L 4 14.003906 L 6 14.003906 L 6 10.003906 C 6 10.003906 6 9.0039062 5 9.0039062 L 1 9.0039062 z M 11 9.0039062 C 11 9.0039062 10 9.0039062 10 10.003906 L 10 14.003906 L 12 14.003906 L 12 11.003906 L 15 11.003906 L 15 9.0039062 L 11 9.0039062 z"/>
</svg>

<svg width="16" height="16" viewBox="0 0 16 16" xmlns="http://www.w3.org/2000/svg">
<defs>
<style id="current-color-scheme" type="text/css">.ColorScheme-Text { color:#5c616c; } .ColorScheme-Highlight { color:#5294e2; }</style>
</defs>
<path class="ColorScheme-Text" d="m4 2.0039v3h-3v2h4c1 0 1-1 1-1v-4h-2zm6 0v4s0 1 1 1h4v-2h-3v-3h-2zm-9 7v2h3v3h2v-4s0-1-1-1h-4zm10 0s-1 0-1 1v4h2v-3h3v-2h-4z" fill="#363636"/>
</svg>
